svg/u1f3e7.svg

<svg viewBox="0 0 128 128" xmlns="http://www.w3.org/2000/svg">
  <path d="M116,4H12c-4.42,0-8,3.58-8,8v104c0,4.42,3.58,8,8,8h104c4.42,0,8-3.58,8-8V12 C124,7.58,120.42,4,116,4z" fill="#194FA5"/>
  <path d="M109.7,4H11.5C7.37,4.03,4.03,7.37,4,11.5v97.9c-0.01,4.14,3.34,7.49,7.48,7.5c0.01,0,0.01,0,0.02,0 h98.1c4.14,0.01,7.49-3.34,7.5-7.48c0-0.01,0-0.01,0-0.02V11.5c0.09-4.05-3.13-7.41-7.18-7.5C109.85,4,109.77,4,109.7,4z" fill="#2262DD"/>
  <g>
    <rect height="56" fill="#0A3880" width="120" x="4" y="36"/>
    <g>
      <path d="M21.09,45.03h8.21l14.26,37.95h-7.9l-3.18-9.06H17.96l-3.18,9.06h-7.9L21.09,45.03z M30.15,67.34 l-3.34-9.54l-1.38-4.56h-0.42l-1.38,4.56l-3.39,9.54H30.15z" fill="#FAFAFA"/>
      <path d="M50.57,51.81h-10.6v-6.78h28.36v6.78h-10.6v31.16h-7.15V51.81z" fill="#FAFAFA"/>
      <path d="M74.05,45.03h9.22l10.07,26.66h0.42l10.07-26.66h9.28v37.95h-7.1V64.27l0.42-6.31h-0.42 l-9.65,25.02H90.8l-9.7-25.02h-0.42l0.42,6.31v18.71h-7.05V45.03z" fill="#FAFAFA"/>
    </g>
  </g>
  <rect height="56" fill="#092C56" width="6.9" x="117.1" y="36"/>
  <path d="M39.7,12.9c0-2.3-1.6-3-10.8-2.7c-7.7,0.3-11.5,1.2-13.8,4 c-1.9,2.3-2.3,5.6-2.6,8.4c-0.2,2.2-2.2,14.9,3.5,11.2c0.68-0.45,1.23-1.07,1.6-1.8c1.2-2.1,1.9-3.5,3.3-5.6 C26.2,17.8,39.7,15.9,39.7,12.9z" opacity="0.3" fill="#FFFFFF" enable-background="new "/>
</svg>

<svg viewBox="0 0 128 128" xmlns="http://www.w3.org/2000/svg">
  <defs/>
  <path d="M116,4 L12,4 C7.58,4 4,7.58 4,12 L4,116 C4,120.42 7.58,124 12,124 L116,124 C120.42,124 124,120.42 124,116 L124,12 C124,7.58 120.42,4 116,4 Z" fill="#194FA5"/>
  <path d="M109.7,4 L11.5,4 C7.37,4.03 4.03,7.37 4,11.5 L4,109.4 C3.99,113.54 7.34,116.89 11.48,116.9 C11.49,116.9 11.49,116.9 11.5,116.9 L109.6,116.9 C113.74,116.91 117.09,113.56 117.1,109.42 C117.1,109.41 117.1,109.41 117.1,109.4 L117.1,11.5 C117.19,7.45 113.97,4.09 109.92,4 C109.85,4 109.77,4 109.7,4 Z" fill="#2262DD"/>
  <path d="M4,36 L124,36 L124,92 L4,92 L4,36 Z" fill="#0A3880"/>
  <path d="M21.09,45.03 L29.3,45.03 L43.56,82.98 L35.66,82.98 L32.48,73.92 L17.96,73.92 L14.78,82.98 L6.88,82.98 L21.09,45.03 Z M30.15,67.34 L26.81,57.8 L25.43,53.24 L25.01,53.24 L23.63,57.8 L20.24,67.34 L30.15,67.34 Z" fill="#FAFAFA"/>
  <path d="M50.57,51.81 L39.97,51.81 L39.97,45.03 L68.33,45.03 L68.33,51.81 L57.73,51.81 L57.73,82.97 L50.58,82.97 L50.58,51.81 Z" fill="#FAFAFA"/>
  <path d="M74.05,45.03 L83.27,45.03 L93.34,71.69 L93.76,71.69 L103.83,45.03 L113.11,45.03 L113.11,82.98 L106.01,82.98 L106.01,64.27 L106.43,57.96 L106.01,57.96 L96.36,82.98 L90.8,82.98 L81.1,57.96 L80.68,57.96 L81.1,64.27 L81.1,82.98 L74.05,82.98 L74.05,45.03 Z" fill="#FAFAFA"/>
  <path d="M117.1,36 L124,36 L124,92 L117.1,92 L117.1,36 Z" fill="#092C56"/>
  <path d="M39.7,12.9 C39.7,10.6 38.1,9.9 28.9,10.2 C21.2,10.5 17.4,11.4 15.1,14.2 C13.2,16.5 12.8,19.8 12.5,22.6 C12.3,24.8 10.3,37.5 16,33.8 C16.68,33.35 17.23,32.73 17.6,32 C18.8,29.9 19.5,28.5 20.9,26.4 C26.2,17.8 39.7,15.9 39.7,12.9 Z" fill="#FFFFFF" opacity="0.3"/>
</svg>
